Flat-Remix-Blue/mimetypes/scalable/application-archive.svg

<svg xmlns="http://www.w3.org/2000/svg" xmlns:xlink="http://www.w3.org/1999/xlink" width="36pt" height="36pt" version="1.1" viewBox="0 0 36 36"> <defs> <image id="image6" width="36" height="36" xlink:href="data:image/png;base64,iVBORw0KGgoAAAANSUhEUgAAACQAAAAkCAYAAADhAJiYAAAABmJLR0QA/wD/AP+gvaeTAAABDklEQVRYhe3SQWpCMRRG4ZObpGrFV7SVOhFX4DYcuAqX4tJczhs8EUoofbW5t5N2KgrBDppvATeHn0B1mS95bL/fC+A3m42fTCay2+04HA72Z0GAXy6Xg77vR03TBMC2263dEiUla9brtU8pjXPOMzN7adu2OR6P8We5qxRdaLVaPYjIk3Nu7pxrVNWnlLL3/uvapYouNJ1OXYwxiMijiDzHGF+B+S1LhZJBADlnF0IIOecxMIwxcj6fadsW4A3o7xoEYGZORIKZDVWV36iu6+yuQafTyQD13mczU0BEZGRmsxCCAgp0l24U/UOLxUKBT1V9B5JzLgEfZqYiMnDOjUu+V1VVVVVVVVVVVf0D3+N0chItnTe7AAAAAElFTkSuQmCC"/> </defs> <g> <path style="fill:rgb(10.980%,58.431%,60.784%)" d="M 7.367188 3.1875 C 6.695312 3.1875 6.0625 3.820312 6.0625 4.492188 L 6.0625 31.882812 C 6.0625 32.515625 6.734375 33.1875 7.367188 33.1875 L 28.238281 33.1875 C 28.871094 33.1875 29.542969 32.515625 29.542969 31.882812 L 29.542969 11.664062 L 21.0625 3.1875 Z M 7.367188 3.1875"/> <use xlink:href="#image6"/> <path style="fill:rgb(36.862%,74.117%,67.058%)" d="M 21.0625 3.1875 L 29.542969 11.664062 L 22.367188 11.664062 C 21.734375 11.664062 21.0625 10.996094 21.0625 10.359375 Z M 21.0625 3.1875"/> <path style="fill:rgb(100.000%,100.000%,100.000%)" d="M 11.28125 3.1875 L 11.28125 5.796875 L 13.890625 5.796875 L 13.890625 8.40625 L 11.28125 8.40625 L 11.28125 11.011719 L 13.890625 11.011719 L 13.890625 13.621094 L 11.28125 13.621094 L 11.28125 16.230469 L 13.890625 16.230469 L 13.890625 20.144531 L 11.28125 20.144531 L 11.28125 25.359375 L 16.496094 25.359375 L 16.496094 20.144531 L 13.890625 20.144531 L 13.890625 18.839844 L 16.496094 18.839844 L 16.496094 16.230469 L 13.890625 16.230469 L 13.890625 13.621094 L 16.496094 13.621094 L 16.496094 11.011719 L 13.890625 11.011719 L 13.890625 8.40625 L 16.496094 8.40625 L 16.496094 5.796875 L 13.890625 5.796875 L 13.890625 3.1875 Z M 11.28125 3.1875"/> </g> </svg>

<svg width="36pt" height="36pt" version="1.1" viewBox="0 0 36 36" xmlns="http://www.w3.org/2000/svg"><defs><filter id="a" x="-.192" y="-.192" width="1.384" height="1.384" color-interpolation-filters="sRGB"><feGaussianBlur stdDeviation="0.67843748"/></filter></defs><path d="m7.3672 3.1875c-0.67188 0-1.3047 0.63281-1.3047 1.3047v27.391c0 0.63281 0.67188 1.3047 1.3047 1.3047h20.871c0.63281 0 1.3047-0.67188 1.3047-1.3047v-20.219l-8.4805-8.4766z" fill="#1b949a"/><path d="m20.668 3.5272 8.4805 8.4805h-7.1758c-0.63281 0-1.3047-0.67187-1.3047-1.3047z" filter="url(#a)" opacity=".2"/><path d="m21.062 3.1875 8.4805 8.4766h-7.1758c-0.63281 0-1.3047-0.66797-1.3047-1.3047z" fill="#5dbcaa"/><path d="m11.281 3.1875v2.6094h2.6094v2.6094h-2.6094v2.6055h2.6094v2.6094h-2.6094v2.6094h2.6094v3.9141h-2.6094v5.2148h5.2148v-5.2148h-2.6055v-1.3047h2.6055v-2.6094h-2.6055v-2.6094h2.6055v-2.6094h-2.6055v-2.6055h2.6055v-2.6094h-2.6055v-2.6094z" fill="#fff"/></svg>
